X:1
T:Title
%%score { ( 1 3 ) | ( 2 4 ) }
L:1/8
Q:1/4=100
M:4/4
K:Eb
V:1 treble nm="Grand Piano"
V:3 treble 
V:2 treble 
V:4 treble 
V:1
 B2 e2 GBEG | F4 C4 | DEFG A2 A2 | G6 z2 | B2 e2 GBEG | F4 C4 | z4 A2 z2 | E6 z2 | %8
w: Fred~A.~Fillmore * * * * *||||||||
 [DF]2 [DF]2 [EG][EG][FA][FA] | [EG]4 [GB]2 z2 | =A2 A2 BBcc | B8 | B2 e2 GBE[DG] | %13
w: |||||
 [A,CF]4[K:bass] [A,C]4 | %14
w: |
 [F,B,D][K:treble][G,B,E][A,B,F][B,EG] .[CEA]2 [B,DG]>[B,F][Q:1/4=99][Q:1/4=97][Q:1/4=96][Q:1/4=94][Q:1/4=93][Q:1/4=91][Q:1/4=90][Q:1/4=88][Q:1/4=87][Q:1/4=85][Q:1/4=84][Q:1/4=82][Q:1/4=81][Q:1/4=79][Q:1/4=78][Q:1/4=76] | %15
w: |
 [G,B,E]6 z2 |] %16
w: |
V:2
 [G,E]2 [B,G]2 E[DF]C[K:bass][B,D] | [A,C]4 A,4 | [G,B,][G,B,][K:treble]B,[B,E] [CE]2 [DF]2 | %3
 E6 z2 | [EG]2 [B,G]2 E[DF]C[K:bass][B,D] | [A,C]4 A,4 | %6
 [F,B,][G,B,][A,B,][B,E] .[CE]2 [B,D]>[A,B,] | [G,B,]6 z2 | %8
 [B,,B,]2 [B,,B,]2 [B,,B,][B,,B,][B,,B,][B,,B,] | [E,B,]4 [E,E]2 z2 | %10
 [F,CF]2 [F,CF]2 [F,DF][F,DF][F,EF][F,EF] | z2 B,2[K:treble] C2 D2 | %12
 [EG]2 [B,G]2 E[DF]C[K:bass]B, | A,,A,,A,,A,, A,,2 A,,2 | B,,B,,B,,B,, z C z z/ A,/ | E,6 z2 |] %16
V:3
 x8 | x8 | x8 | x8 | x8 | x8 | DEFG z C G>F | x8 | x8 | x8 | x8 | [DF]2 D2 E2 F2 | x8 | %13
 x4[K:bass] x4 | x[K:treble] x7 | x8 |] %16
V:4
 x7[K:bass] x | x8 | x2[K:treble] x6 | x8 | x7[K:bass] x | x8 | x8 | x8 | x8 | x8 | x8 | %11
 B,,8[K:treble] | x7[K:bass] x | x8 | z4 B,,2 B,,2 | x8 |] %16

